(Generated by PartKam Version 0.05)

G21 G90 G40

(drill 2)
G0 Z5
T0 M6
G17
M3
G0 X89.711 Y80.364
G1 Z-2 F250
G1 Z0 F250
G1 Z-4 F250
G1 Z0 F250
G1 Z-5 F250
G1 Z0 F250

(profile 3)
G0 Z5
T1 M6
G0 X91.617 Y88.499
G1 Z-2 F250
G2 X91.745 Y89.14 I1.676 J0 F250
G2 X92.108 Y89.684 I1.548 J-0.641
G2 X92.652 Y90.047 I1.185 J-1.185
G2 X93.293 Y90.175 I0.641 J-1.548
G2 X93.935 Y90.047 I0 J-1.676
G2 X94.479 Y89.684 I-0.641 J-1.548
G2 X94.842 Y89.14 I-1.185 J-1.185
G2 X94.97 Y88.499 I-1.548 J-0.641
G2 X94.842 Y87.857 I-1.676 J0
G2 X94.479 Y87.313 I-1.548 J0.641
G2 X93.935 Y86.95 I-1.185 J1.185
G2 X93.293 Y86.822 I-0.641 J1.548
G2 X92.652 Y86.95 I0 J1.676
G2 X92.108 Y87.313 I0.641 J1.548
G2 X91.745 Y87.857 I1.185 J1.185
G2 X91.617 Y88.499 I1.548 J0.641
G0 X97.54 Y80.274
G1 Z-2 F250
G2 X97.176 Y80.817 I1.185 J1.185 F250
G2 X97.049 Y81.459 I1.548 J0.641
G2 X97.176 Y82.1 I1.676 J0
G2 X97.54 Y82.643 I1.548 J-0.641
G2 X98.083 Y83.007 I1.185 J-1.185
G2 X98.725 Y83.134 I0.641 J-1.548
G2 X99.366 Y83.007 I0 J-1.676
G2 X99.909 Y82.643 I-0.641 J-1.548
G2 X100.273 Y82.1 I-1.185 J-1.185
G2 X100.4 Y81.459 I-1.548 J-0.641
G2 X100.273 Y80.817 I-1.676 J0
G2 X99.909 Y80.274 I-1.548 J0.641
G2 X99.366 Y79.91 I-1.185 J1.185
G2 X98.725 Y79.783 I-0.641 J1.548
G2 X98.083 Y79.91 I0 J1.676
G2 X97.54 Y80.274 I0.641 J1.548

(profile 1)
G0 Z5
G0 X7.662 Y65.643
G1 Z-2 F250
G3 X5.769 Y61.234 I11.915 J-7.727 F250
G3 X5.602 Y60.44 I13.807 J-3.318
G3 X5.375 Y57.916 I13.974 J-2.524
G3 X5.452 Y56.446 I14.2 J0
G3 X5.588 Y55.466 I14.125 J1.469
G3 X6.726 Y51.871 I13.988 J2.45
G3 X9.438 Y47.973 I12.844 J6.042
G3 X13.282 Y45.187 I10.138 J9.945
G3 X17.831 Y43.823 I6.302 J12.746
G3 X20.264 Y43.731 I1.751 J14.123
G3 X22.675 Y44.055 I-0.681 J14.208
G3 X24.996 Y44.785 I-3.092 J13.884
G3 X27.158 Y45.9 I-5.416 J13.161
G3 X27.65 Y46.223 I-7.568 J12.048
G3 X28.124 Y46.563 I-7.947 J11.563
G3 X28.582 Y46.922 I-8.442 J11.25
G3 X29.03 Y47.304 I-9.113 J11.151
G3 X29.327 Y47.582 I-5.166 J5.824
G3 X29.816 Y48.076 I-18.63 J18.912
G2 X30.305 Y48.567 I14.873 J-14.327
G2 X30.507 Y48.75 I2.85 J-2.936
G2 X31.283 Y49.355 I7.628 J-8.987
G2 X32.063 Y49.863 I6.218 J-8.703
G2 X32.885 Y50.301 I5.435 J-9.207
G2 X33.787 Y50.687 I5.076 J-10.61
G2 X37.366 Y51.409 I3.979 J-10.487
G2 X40.986 Y50.944 I0.4 J-11.204
G2 X44.265 Y49.34 I-3.22 J-10.737
G2 X46.855 Y46.768 I-6.5 J-9.136
G2 X48.484 Y43.493 I-9.091 J-6.565
G2 X48.977 Y40.204 I-10.719 J-3.289
G2 X48.972 Y39.868 I-11.212 J0
G2 X48.268 Y36.279 I-11.206 J0.336
G2 X46.445 Y33.107 I-10.501 J3.925
G2 X45.817 Y32.4 I-9.046 J7.392
G2 X45.166 Y31.778 I-7.707 J7.415
G2 X44.466 Y31.213 I-7.06 J8.041
G2 X43.681 Y30.68 I-6.961 J9.421
G2 X43.496 Y30.57 I-3.583 J5.752
G2 X43.061 Y30.322 I-15.818 J27.291
G3 X42.303 Y29.879 I11.047 J-19.778
G3 X41.865 Y29.588 I3.57 J-5.848
G3 X41.406 Y29.243 I8.328 J-11.573
G3 X40.964 Y28.882 I8.665 J-11.071
G3 X40.537 Y28.505 I9.123 J-10.729
G3 X40.123 Y28.107 I9.756 J-10.576
G3 X38.598 Y26.305 I10.056 J-10.057
G3 X37.392 Y24.276 I11.583 J-8.258
G3 X36.538 Y22.076 I12.791 J-6.229
G3 X36.06 Y19.765 I13.648 J-4.03
G3 X35.955 Y18.047 I14.113 J-1.718
G3 X36.251 Y15.165 I14.218 J0
G3 X37.901 Y10.87 I13.907 J2.879
G3 X40.839 Y7.327 I12.25 J7.17
G3 X44.059 Y5.22 I9.315 J10.716
G3 X44.757 Y4.911 I6.095 J12.824
G3 X48.856 Y3.904 I5.401 J13.141
G3 X49.305 Y3.87 I1.302 J14.148
G3 X53.942 Y4.358 I0.852 J14.168
G3 X58.172 Y6.324 I-3.785 J13.678
G3 X61.537 Y9.555 I-8.021 J11.722
G3 X62.752 Y11.49 I-11.373 J8.488
G3 X63.641 Y13.596 I-12.584 J6.55
G3 X64.179 Y15.816 I-13.475 J4.446
G3 X64.355 Y18.044 I-14.028 J2.228
G3 X64.355 Y18.095 I-14.204 J0
G3 X64.154 Y20.488 I-14.999 J-0.057
G3 X63.596 Y22.662 I-12.699 J-2.102
G3 X62.744 Y24.586 I-12.704 J-4.475
G3 X61.442 Y26.663 I-16.666 J-8.997
G2 X59.817 Y29.939 I9.079 J6.546
G2 X59.328 Y33.21 I10.708 J3.271
G2 X59.334 Y33.564 I11.196 J0
G2 X60.045 Y37.152 I11.193 J-0.355
G2 X61.875 Y40.319 I10.482 J-3.943
G2 X64.639 Y42.736 I8.654 J-7.11
G2 X68.035 Y44.128 I5.887 J-9.522
G2 X71.698 Y44.347 I2.491 J-10.915
G2 X75.237 Y43.369 I-1.173 J-11.138
G2 X76.815 Y42.476 I-4.701 J-10.148
G2 X78.229 Y41.339 I-6.282 J-9.258
G2 X79.44 Y39.989 I-7.699 J-8.126
G2 X80.418 Y38.46 I-8.924 J-6.786
G2 X80.824 Y37.616 I-10.312 J-5.474
G2 X81.143 Y36.783 I-9.841 J-4.252
G2 X81.392 Y35.927 I-10.171 J-3.422
G2 X81.579 Y35.01 I-11.395 J-2.806
G2 X81.62 Y34.713 I-6.064 J-0.983
G2 X81.691 Y34.008 I-28.725 J-3.225
G3 X81.747 Y33.411 I40.542 J3.548
G3 X81.786 Y33.079 I11.249 J1.152
G3 X81.872 Y32.517 I14.299 J1.901
G3 X81.98 Y31.963 I13.956 J2.419
G3 X82.109 Y31.413 I13.85 J2.973
G3 X82.262 Y30.864 I13.979 J3.589
G3 X84.328 Y26.663 I13.612 J4.087
G3 X87.643 Y23.366 I11.519 J8.267
G3 X91.85 Y21.327 I8.205 J11.566
G3 X96.497 Y20.765 I4.008 J13.642
G3 X101.065 Y21.739 I-0.639 J14.186
G3 X105.07 Y24.144 I-5.207 J13.212
G3 X106.594 Y25.655 I-9.212 J10.808
G3 X108.078 Y27.717 I-10.736 J9.296
G3 X109.141 Y29.928 I-12.22 J7.234
G3 X109.764 Y32.073 I-13.282 J5.023
G3 X110.059 Y34.952 I-13.903 J2.879
G3 X109.951 Y36.704 I-14.198 J0
G3 X108.635 Y41.149 I-14.093 J-1.753
G3 X105.959 Y44.934 I-12.781 J-6.199
G3 X102.206 Y47.656 I-10.106 J-9.986
G3 X101.116 Y48.146 I-6.569 J-13.151
G3 X100.024 Y48.532 I-5.11 J-12.725
G3 X98.904 Y48.824 I-4.024 J-13.13
G3 X97.726 Y49.03 I-3.133 J-14.476
G3 X96.624 Y49.124 I-1.575 J-11.866
G3 X95.411 Y49.123 I-0.585 J-14.79
G3 X94.462 Y49.056 I0.732 J-17.258
G3 X93.229 Y48.91 I2.977 J-30.429
G2 X91.389 Y48.807 I-1.546 J11.104
G2 X89.558 Y49.007 I0.294 J11.199
G2 X87.785 Y49.503 I2.124 J10.997
G2 X86.116 Y50.284 I3.897 J10.499
G2 X83.297 Y52.578 I5.567 J9.724
G2 X81.36 Y55.653 I8.387 J7.431
G2 X80.509 Y59.186 I10.325 J4.356
G2 X80.478 Y60.009 I11.178 J0.823
G2 X80.833 Y62.806 I11.208 J0
G2 X82.315 Y66.157 I10.851 J-2.796
G2 X84.799 Y68.851 I9.369 J-6.147
G2 X88.018 Y70.599 I6.886 J-8.842
G2 X91.631 Y71.216 I3.667 J-10.592
G2 X92.233 Y71.19 I0.032 J-6.21
G2 X93.629 Y71.026 I-2.632 J-28.565
G3 X94.886 Y70.869 I5.363 J37.808
G3 X95.595 Y70.816 I1.156 J10.686
G3 X96.776 Y70.815 I0.61 J14.754
G3 X97.917 Y70.906 I-0.531 J13.725
G3 X99.048 Y71.093 I-1.67 J13.616
G3 X100.193 Y71.381 I-2.995 J14.36
G3 X102.385 Y72.228 I-4.008 J13.63
G3 X104.408 Y73.425 I-6.2 J12.781
G3 X106.205 Y74.94 I-8.223 J11.585
G3 X107.729 Y76.73 I-10.026 J10.076
G3 X109.773 Y80.862 I-11.542 J8.279
G3 X110.392 Y85.01 I-13.587 J4.148
G3 X110.385 Y85.431 I-14.206 J0
G3 X109.503 Y89.955 I-14.2 J-0.421
G3 X109.157 Y90.802 I-13.316 J-4.945
G3 X107.219 Y93.958 I-12.97 J-5.792
G3 X106.365 Y94.919 I-11.035 J-8.949
G3 X103.768 Y97.023 I-10.181 J-9.91
G3 X99.518 Y98.82 I-7.581 J-12.009
G3 X94.916 Y99.159 I-3.331 J-13.806
G3 X90.447 Y98.005 I1.272 J-14.151
G3 X88.373 Y96.874 I5.74 J-12.998
G3 X86.514 Y95.415 I7.813 J-11.865
G3 X84.924 Y93.668 I9.672 J-10.406
G3 X83.644 Y91.681 I11.268 J-8.664
G3 X83.136 Y90.628 I12.966 J-6.9
G3 X82.728 Y89.569 I12.598 J-5.467
G3 X82.408 Y88.48 I13.011 J-4.409
G3 X82.171 Y87.335 I14.277 J-3.556
G3 X82.161 Y87.266 I1.48 J-0.246
G1 X81.927 Y85.3
G2 X81.848 Y84.878 I-11.115 J1.851
G2 X81.747 Y84.434 I-10.831 J2.231
G2 X81.628 Y83.994 I-10.749 J2.68
G2 X81.489 Y83.554 I-10.906 J3.2
G2 X79.761 Y80.319 I-10.618 J3.593
G2 X77.082 Y77.815 I-8.889 J6.826
G2 X73.738 Y76.31 I-6.208 J9.327
G2 X70.087 Y75.966 I-2.862 J10.828
G2 X66.543 Y76.809 I0.785 J11.175
G2 X63.456 Y78.745 I4.331 J10.335
G2 X61.153 Y81.569 I7.42 J8.401
G2 X59.877 Y84.982 I9.724 J5.578
G2 X59.731 Y85.927 I11.525 J2.264
G2 X59.668 Y86.832 I10.634 J1.203
G2 X59.664 Y87.129 I10.693 J0.297
G2 X59.681 Y87.739 I10.697 J0
G2 X59.775 Y88.691 I11.701 J-0.668
G2 X59.924 Y89.484 I8.342 J-1.158
G2 X60.194 Y90.443 I11.887 J-2.832
G2 X60.431 Y91.115 I14.467 J-4.721
G2 X60.885 Y92.262 I40.134 J-15.211
G3 X61.594 Y94.489 I-13.133 J5.411
G3 X61.929 Y96.802 I-13.842 J3.184
G3 X61.956 Y97.673 I-14.174 J0.871
G3 X61.88 Y99.139 I-14.201 J0
G3 X61.448 Y101.436 I-14.118 J-1.465
G3 X59.515 Y105.632 I-13.696 J-3.766
G3 X56.339 Y108.985 I-11.761 J-7.96
G3 X52.254 Y111.142 I-8.584 J-11.313
G3 X47.693 Y111.873 I-4.5 J-13.47
G3 X43.72 Y111.288 I0.061 J-14.202
G3 X43.106 Y111.091 I4.034 J-13.617
G3 X39.272 Y109.062 I4.647 J-13.418
G3 X39.018 Y108.868 I8.481 J-11.388
G3 X35.868 Y105.443 I8.736 J-11.195
G3 X33.994 Y101.183 I11.89 J-7.773
G3 X33.553 Y97.67 I13.768 J-3.513
G3 X33.597 Y96.541 I14.209 J0
G3 X34.724 Y92.025 I14.139 J1.127
G3 X37.252 Y88.116 I13.011 J5.643
G3 X40.912 Y85.233 I10.501 J9.568
G3 X41.67 Y84.859 I4.61 J8.396
G3 X43.038 Y84.294 I13.375 J30.446
G2 X44.149 Y83.842 I-12.379 J-31.971
G2 X44.623 Y83.619 I-2.959 J-6.914
G2 X45.448 Y83.152 I-5.344 J-10.4
G2 X46.194 Y82.644 I-5.643 J-9.085
G2 X46.894 Y82.075 I-6.393 J-8.583
G2 X47.579 Y81.417 I-7.776 J-8.786
G2 X48.732 Y80.003 I-8.079 J-7.763
G2 X49.639 Y78.421 I-9.226 J-6.344
G2 X50.278 Y76.712 I-10.134 J-4.762
G2 X50.631 Y74.922 I-10.781 J-3.056
G2 X50.702 Y73.66 I-11.128 J-1.262
G2 X50.442 Y71.259 I-11.199 J0
G2 X49.08 Y67.854 I-10.937 J2.4
G2 X46.69 Y65.071 I-9.574 J5.805
G2 X43.53 Y63.21 I-7.186 J8.589
G2 X39.955 Y62.471 I-4.025 J10.452
G2 X36.334 Y62.921 I-0.451 J11.188
G2 X33.049 Y64.511 I3.17 J10.737
G2 X30.454 Y67.067 I6.456 J9.148
G3 X27.513 Y69.881 I-8.862 J-6.319
G3 X23.391 Y71.671 I-7.421 J-11.446
G3 X19.198 Y72.12 I-3.715 J-14.906
G3 X15.157 Y71.411 I0.449 J-14.436
G3 X10.915 Y69.17 I4.416 J-13.491
G3 X7.662 Y65.643 I8.66 J-11.253
G0 X0 Y0
M5
M30
